www/assets/icons/menu_book.svg

<svg xmlns="http://www.w3.org/2000/svg" width="24" height="24" viewBox="0 0 24 24" fill='currentColor'><path d="M21 4c-1.11-.35-2.33-.5-3.5-.5-1.95 0-4.05.4-5.5 1.5-1.45-1.1-3.55-1.5-5.5-1.5S2.45 3.9 1 5v14.65c0 .25.25.5.5.5.1 0 .15-.05.25-.05C3.1 19.45 5.05 19 6.5 19c1.95 0 4.05.4 5.5 1.5 1.35-.85 3.8-1.5 5.5-1.5 1.65 0 3.35.3 4.75 1.05.1.05.15.05.25.05.25 0 .5-.25.5-.5V5c-.6-.45-1.25-.75-2-1m0 13.5c-1.1-.35-2.3-.5-3.5-.5-1.7 0-4.15.65-5.5 1.5V7c1.35-.85 3.8-1.5 5.5-1.5 1.2 0 2.4.15 3.5.5z"/><path d="M17.5 9.5c.88 0 1.73.09 2.5.26V8.24c-.79-.15-1.64-.24-2.5-.24-1.7 0-3.24.29-4.5.83v1.66c1.13-.64 2.7-.99 4.5-.99M13 11.49v1.66c1.13-.64 2.7-.99 4.5-.99.88 0 1.73.09 2.5.26V10.9c-.79-.15-1.64-.24-2.5-.24-1.7 0-3.24.3-4.5.83m4.5 1.84c-1.7 0-3.24.29-4.5.83v1.66c1.13-.64 2.7-.99 4.5-.99.88 0 1.73.09 2.5.26v-1.52c-.79-.16-1.64-.24-2.5-.24"/></svg>

<svg width="24" height="24" viewBox="0 0 24 24" xmlns="http://www.w3.org/2000/svg" fill='currentColor'><path d="M21 4C19.89 3.65 18.67 3.5 17.5 3.5C15.55 3.5 13.45 3.9 12 5C10.55 3.9 8.45 3.5 6.5 3.5C4.55 3.5 2.45 3.9 1 5V19.65C1 19.9 1.25 20.15 1.5 20.15C1.6 20.15 1.65 20.1 1.75 20.1C3.1 19.45 5.05 19 6.5 19C8.45 19 10.55 19.4 12 20.5C13.35 19.65 15.8 19 17.5 19C19.15 19 20.85 19.3 22.25 20.05C22.35 20.1 22.4 20.1 22.5 20.1C22.75 20.1 23 19.85 23 19.6V5C22.4 4.55 21.75 4.25 21 4ZM21 17.5C19.9 17.15 18.7 17 17.5 17C15.8 17 13.35 17.65 12 18.5V7C13.35 6.15 15.8 5.5 17.5 5.5C18.7 5.5 19.9 5.65 21 6V17.5Z"/><path d="M17.5 9.5C18.38 9.5 19.23 9.59 20 9.76V8.24C19.21 8.09 18.36 8 17.5 8C15.8 8 14.26 8.29 13 8.83V10.49C14.13 9.85 15.7 9.5 17.5 9.5Z"/><path d="M13 11.49V13.15C14.13 12.51 15.7 12.16 17.5 12.16C18.38 12.16 19.23 12.25 20 12.42V10.9C19.21 10.75 18.36 10.66 17.5 10.66C15.8 10.66 14.26 10.96 13 11.49Z"/><path d="M17.5 13.33C15.8 13.33 14.26 13.62 13 14.16V15.82C14.13 15.18 15.7 14.83 17.5 14.83C18.38 14.83 19.23 14.92 20 15.09V13.57C19.21 13.41 18.36 13.33 17.5 13.33Z"/></svg>
